X: 1
T:Leitrim Jig, The
R:double jig
M:6/8
L:1/8
K:G
GBG FAF|E2B BAB|GBG FAF|D2A AFD|!
G3 F3|E2B BAB|G2B dBG|ABG FED:|!
G2B dBd|edB dBA|G2B dBG|ABG FED|!
G2B dBd|edB def|gfe dBG|ABG FED:|!
